public/img/logos/Cigna-vector-logo.svg

<svg width="188" height="65" viewBox="0 0 188 65" fill="none" xmlns="http://www.w3.org/2000/svg">
<path d="M50.6803 28.5541C50.6803 28.9801 50.2262 29.4509 49.6359 30.1683C47.6153 32.6121 43.1426 36.9615 43.1426 47.7455C43.1426 53.3281 44.0734 55.6373 44.0734 58.2605C44.0734 59.4487 43.8237 60.0765 43.2107 60.0765C41.7803 60.0765 39.3737 54.18 39.3737 47.1402C39.3737 32.3655 48.8186 28.2402 50.2717 28.2402C50.5668 28.2178 50.6803 28.3747 50.6803 28.5541ZM26.9092 28.2178C28.3622 28.2178 37.8071 32.343 37.8071 47.1178C37.8071 54.1801 35.4005 60.0541 33.9701 60.0541C33.3344 60.0541 33.1074 59.4263 33.1074 58.2381C33.1074 55.6149 34.0382 53.3057 34.0382 47.7231C34.0382 36.9391 29.5428 32.5897 27.5449 30.1459C26.9546 29.4285 26.5005 28.9576 26.5005 28.5317C26.4778 28.3747 26.614 28.2178 26.9092 28.2178Z" fill="#0982C6"/>
<path d="M35.1514 31.1772C35.1514 33.1053 36.6952 34.6747 38.6024 34.6747C40.5095 34.6747 42.0534 33.1053 42.0534 31.1772C42.0534 29.2491 40.5095 27.6797 38.6024 27.6797C36.6725 27.6797 35.1514 29.2491 35.1514 31.1772Z" fill="#F8971F"/>
<path d="M68.0492 53.1263C63.1451 50.1445 55.6754 47.0505 44.8683 46.064C44.8456 46.1986 44.7548 46.9832 44.7548 47.7455C44.7548 48.1042 44.8229 48.5751 44.8229 48.6647C55.3803 49.3373 62.8953 51.5569 67.981 53.3505C68.0719 53.3953 68.1854 53.4402 68.2308 53.4402C68.2762 53.4402 68.3216 53.3953 68.3216 53.3505C68.3443 53.2832 68.2535 53.2384 68.0492 53.1263ZM44.1872 13.2861C43.3698 12.5462 42.666 11.4252 43.2109 9.72133C43.7331 8.08467 45.0045 6.7619 46.3441 6.38076C47.2522 7.43449 47.5474 9.25051 47.0252 10.8872C46.503 12.6135 45.2997 13.1516 44.1872 13.2861ZM52.1563 19.8327C51.8611 18.8238 51.8839 17.5683 53.2234 16.4473C54.4948 15.3936 56.2203 14.9452 57.5145 15.3487C57.6961 16.6715 56.9923 18.2857 55.7208 19.3395C54.3813 20.4605 53.1099 20.2811 52.1563 19.8327ZM52.406 29.6975C52.7466 28.711 53.4504 27.7021 55.1532 27.5227C56.7652 27.3434 58.4226 27.9487 59.24 28.9576C58.6497 30.1235 57.1739 31.0427 55.5619 31.222C53.8591 31.4238 52.9509 30.5943 52.406 29.6975ZM49.5226 33.2847C50.0675 32.5448 50.953 31.8722 52.4288 32.1637C53.8591 32.4327 55.0851 33.3744 55.5165 34.4505C54.6992 35.3025 53.2007 35.706 51.7703 35.4146C50.2946 35.1231 49.7497 34.1815 49.5226 33.2847ZM40.8497 23.9356C39.8507 23.0612 39.0333 21.716 39.6691 19.6534C40.2821 17.6804 41.8032 16.0886 43.4379 15.6626C44.5277 16.9181 44.891 19.0929 44.2553 21.0658C43.6196 23.1284 42.1665 23.7786 40.8497 23.9356ZM44.6413 26.1103C44.3234 24.9669 44.3461 23.5544 45.8446 22.2989C47.2749 21.1107 49.2275 20.6174 50.6578 21.0658C50.8622 22.5455 50.0675 24.3615 48.6372 25.5498C47.1387 26.8277 45.7311 26.626 44.6413 26.1103ZM47.1614 18.1288C46.4349 16.9854 46.0035 15.4608 47.2068 13.6C48.3647 11.8512 50.3173 10.6854 52.0201 10.7078C52.7466 12.2548 52.4742 14.4743 51.3163 16.2231C50.1129 18.1064 48.5236 18.3306 47.1614 18.1288ZM52.2698 25.079C52.2925 23.8235 52.7239 22.411 54.6083 21.559C56.402 20.7519 58.5362 20.8192 59.853 21.6936C59.6259 23.263 58.2864 24.8772 56.4928 25.6843C54.6083 26.5139 53.2234 25.8861 52.2698 25.079ZM35.8094 10.6854C35.8094 8.30887 36.9446 6.02204 38.602 4.99072C40.2594 6.02204 41.3719 8.30887 41.3719 10.6854C41.3719 13.174 39.9869 14.3623 38.602 15.0124C37.1943 14.3623 35.8094 13.174 35.8094 10.6854ZM8.83691 53.3505C8.83691 53.3953 8.85962 53.4402 8.92773 53.4402C8.97314 53.4402 9.06395 53.3953 9.17748 53.3505C14.2632 51.5569 21.8009 49.3373 32.3356 48.6647C32.3583 48.5751 32.4038 48.1042 32.4038 47.7455C32.4038 46.9832 32.3129 46.1986 32.2902 46.064C21.4831 47.0505 14.0134 50.1445 9.10936 53.1263C8.92773 53.2384 8.83691 53.2832 8.83691 53.3505ZM30.1333 10.8872C29.6111 9.25051 29.9063 7.43449 30.8145 6.38076C32.1767 6.73948 33.4481 8.08467 33.9476 9.72133C34.4925 11.4252 33.7887 12.5462 32.9714 13.2861C31.8816 13.1516 30.6782 12.6135 30.1333 10.8872ZM21.4604 19.3395C20.189 18.2633 19.4851 16.6715 19.6668 15.3487C20.9609 14.9452 22.6864 15.3711 23.9578 16.4473C25.2974 17.5683 25.3201 18.8238 25.0249 19.8327C24.0486 20.2811 22.7999 20.4605 21.4604 19.3395ZM21.6193 31.2445C19.9846 31.0651 18.5089 30.1459 17.9413 28.98C18.7586 27.9487 20.416 27.3658 22.028 27.5452C23.7308 27.7245 24.4346 28.7334 24.7752 29.7199C24.2303 30.5943 23.3221 31.4238 21.6193 31.2445ZM25.3882 35.4146C23.9578 35.6836 22.4594 35.28 21.6647 34.4505C22.0961 33.3744 23.3221 32.4327 24.7525 32.1637C26.2509 31.8722 27.1137 32.5448 27.6586 33.2847C27.4316 34.1815 26.8867 35.1231 25.3882 35.4146ZM32.9032 21.0658C32.2902 19.0929 32.6308 16.9181 33.7206 15.6626C35.3553 16.0886 36.8765 17.7028 37.4895 19.6534C38.1252 21.716 37.3078 23.0388 36.3089 23.9356C34.992 23.7786 33.5617 23.1284 32.9032 21.0658ZM28.5441 25.5722C27.1137 24.384 26.3191 22.5679 26.5234 21.0882C27.9765 20.6398 29.9063 21.1331 31.3367 22.3213C32.8351 23.5768 32.8578 24.9893 32.54 26.1327C31.4502 26.626 30.0425 26.8277 28.5441 25.5722ZM25.8423 16.2679C24.6844 14.5192 24.4119 12.2772 25.1384 10.7526C26.864 10.7302 28.8165 11.8736 29.9517 13.6448C31.155 15.4832 30.7236 17.0302 29.9971 18.1736C28.6576 18.3306 27.0683 18.1064 25.8423 16.2679ZM20.6884 25.6619C18.8948 24.8548 17.5326 23.2405 17.3282 21.6711C18.6678 20.7968 20.7793 20.7295 22.5729 21.5366C24.4573 22.3886 24.8887 23.801 24.9114 25.0566C23.9578 25.8861 22.5729 26.5139 20.6884 25.6619Z" fill="#56B948"/>
<path d="M129.282 46.0865V32.4103C129.282 30.5719 129.101 27.0744 129.055 26.2673H133.346L133.551 29.0473H133.641C134.141 28.2626 135.753 25.8189 139.499 25.8189C144.017 25.8189 146.537 29.0922 146.537 33.195V46.0641H141.747V34.1367C141.747 31.6256 140.316 29.7199 137.887 29.7199C135.367 29.7199 134.027 31.7153 134.027 34.1367V46.0641H129.282V46.0865ZM101.311 26.3345H96.5201V46.0865H101.311V26.3345ZM169.559 46.0865C169.4 44.9879 168.946 42.0733 168.946 39.5623V26.7157C168.197 26.5363 165.472 25.8189 162.362 25.8189C154.257 25.8189 150.76 31.1772 150.76 36.984C150.76 42.3199 153.485 46.5125 158.684 46.5125C162.498 46.5125 164.201 44.0687 164.837 42.7907H164.95C164.996 43.3961 165.177 45.5036 165.223 46.0865H169.559ZM164.178 36.289C164.178 40.8178 162.385 42.7011 159.796 42.7011C157.185 42.7011 155.71 40.5039 155.71 36.6701C155.71 32.7466 158.003 29.4957 162.203 29.4957C163.066 29.4957 163.679 29.5854 164.201 29.6975V36.289H164.178ZM91.7523 41.2438C90.4582 41.8491 88.3694 42.2527 86.3487 42.2527C80.8543 42.2527 76.7903 38.374 76.7903 32.4552C76.7903 26.5811 80.8089 22.6577 86.3487 22.6577C89.0959 22.6577 91.0485 23.3078 91.7523 23.6441V19.4068C90.549 18.9584 88.5964 18.51 85.8492 18.51C77.3125 18.51 71.5684 24.3391 71.5684 32.4327C71.5684 40.1004 76.8584 46.3555 85.8492 46.3555C88.4829 46.3555 90.4582 45.952 91.7523 45.4811V41.2438ZM119.338 43.71V45.1897C119.338 49.2253 116.818 50.7947 113.684 50.7947C110.869 50.7947 108.803 49.9651 108.145 49.7409V53.7317C108.69 53.8662 110.96 54.5836 114.207 54.5836C119.996 54.5836 123.856 52.2295 123.856 44.1584V26.7381C123.107 26.5587 120.405 25.8413 117.272 25.8413C109.166 25.8413 105.67 31.1996 105.67 37.0064C105.67 42.3424 108.394 46.5349 113.594 46.5349C117.022 46.5349 118.679 44.4947 119.224 43.7324H119.338V43.71ZM119.088 36.289C119.088 40.8178 117.294 42.7011 114.683 42.7011C112.072 42.7011 110.597 40.5039 110.597 36.6701C110.597 32.7466 112.867 29.4957 117.09 29.4957C117.953 29.4957 118.566 29.5854 119.088 29.6975V36.289ZM95.9525 21.1555C95.9525 22.7473 97.2694 24.0253 98.9268 24.0253C100.561 24.0253 101.878 22.7473 101.878 21.1555C101.878 19.5637 100.561 18.2858 98.9268 18.2858C97.2921 18.2858 95.9525 19.5861 95.9525 21.1555Z" fill="#0982C6"/>
<path d="M178.368 45.5035C177.846 46.0192 177.21 46.2882 176.484 46.2882C175.734 46.2882 175.121 46.0192 174.599 45.5035C174.077 44.9879 173.827 44.3601 173.827 43.6427C173.827 42.9252 174.077 42.2975 174.599 41.7818C175.121 41.2661 175.734 41.0195 176.484 41.0195C177.21 41.0195 177.846 41.2661 178.368 41.7818C178.89 42.2975 179.14 42.9028 179.14 43.6427C179.14 44.3601 178.89 44.9879 178.368 45.5035ZM174.849 42.0284C174.395 42.4768 174.19 42.9925 174.19 43.6202C174.19 44.248 174.417 44.7861 174.849 45.2345C175.303 45.6829 175.825 45.9071 176.461 45.9071C177.097 45.9071 177.641 45.6829 178.073 45.2345C178.527 44.7861 178.731 44.248 178.731 43.6202C178.731 42.9925 178.504 42.4544 178.073 42.0284C177.619 41.58 177.074 41.3558 176.461 41.3558C175.848 41.3783 175.303 41.6024 174.849 42.0284ZM176.415 42.1854C176.779 42.1854 177.051 42.2302 177.21 42.2975C177.505 42.4096 177.664 42.6562 177.664 43.0373C177.664 43.3064 177.573 43.4857 177.369 43.5978C177.278 43.6651 177.119 43.7099 176.938 43.7323C177.165 43.7772 177.324 43.8669 177.437 44.0238C177.551 44.1807 177.596 44.3153 177.596 44.4722V44.674C177.596 44.7412 177.596 44.8085 177.596 44.8982C177.596 44.9654 177.619 45.0327 177.619 45.0551L177.641 45.1H177.165V45.0775V45.0551V44.9654V44.7412C177.165 44.4049 177.074 44.1807 176.892 44.0911C176.779 44.0238 176.597 44.0014 176.325 44.0014H175.916V45.1448H175.394V42.2526H176.415V42.1854ZM176.983 42.6338C176.847 42.5665 176.642 42.5217 176.347 42.5217H175.916V43.5754H176.393C176.62 43.5754 176.779 43.553 176.892 43.5081C177.097 43.4185 177.187 43.2839 177.187 43.0597C177.165 42.858 177.119 42.701 176.983 42.6338Z" fill="#0982C6"/>
</svg>

<svg width="188" height="65" fill="none" xmlns="http://www.w3.org/2000/svg"><path d="M50.68 28.554c0 .426-.454.897-1.044 1.614-2.02 2.444-6.493 6.794-6.493 17.578 0 5.582.93 7.891.93 10.514 0 1.189-.25 1.817-.862 1.817-1.43 0-3.837-5.897-3.837-12.937 0-14.775 9.445-18.9 10.898-18.9.295-.022.408.135.408.314zm-23.77-.336c1.452 0 10.897 4.125 10.897 18.9 0 7.062-2.407 12.936-3.837 12.936-.636 0-.863-.628-.863-1.816 0-2.623.931-4.932.931-10.515 0-10.784-4.495-15.133-6.493-17.577-.59-.718-1.045-1.188-1.045-1.614-.022-.157.114-.314.41-.314z" fill="#0982C6"/><path d="M35.151 31.177c0 1.928 1.544 3.498 3.451 3.498 1.908 0 3.451-1.57 3.451-3.498 0-1.928-1.543-3.497-3.45-3.497-1.93 0-3.452 1.57-3.452 3.497z" fill="#F8971F"/><path d="M68.05 53.126c-4.905-2.981-12.375-6.075-23.182-7.062-.022.135-.113.92-.113 1.681 0 .36.068.83.068.92 10.557.672 18.072 2.892 23.158 4.685.09.045.204.09.25.09.045 0 .09-.045.09-.09.023-.067-.067-.112-.272-.224zm-23.863-39.84c-.817-.74-1.521-1.86-.976-3.565.522-1.636 1.794-2.96 3.133-3.34.908 1.053 1.203 2.87.681 4.506-.522 1.726-1.725 2.265-2.838 2.4zm7.97 6.547c-.296-1.01-.273-2.265 1.066-3.386 1.272-1.053 2.997-1.502 4.291-1.098.182 1.323-.522 2.937-1.793 3.99-1.34 1.122-2.611.942-3.565.494zm.249 9.865c.34-.987 1.044-1.996 2.747-2.175 1.612-.18 3.27.426 4.087 1.435-.59 1.166-2.066 2.085-3.678 2.264-1.703.202-2.611-.628-3.156-1.524zm-2.883 3.587c.544-.74 1.43-1.413 2.906-1.121 1.43.269 2.656 1.21 3.087 2.286-.817.852-2.315 1.256-3.746.965-1.475-.292-2.02-1.233-2.247-2.13zm-8.673-9.35c-1-.874-1.817-2.219-1.18-4.282.612-1.973 2.133-3.564 3.768-3.99 1.09 1.255 1.453 3.43.817 5.403-.635 2.062-2.089 2.713-3.405 2.87zm3.791 2.175c-.318-1.143-.295-2.556 1.204-3.811 1.43-1.188 3.383-1.682 4.813-1.233.204 1.48-.59 3.296-2.02 4.484-1.5 1.278-2.907 1.076-3.997.56zm2.52-7.981c-.726-1.144-1.157-2.668.046-4.529 1.158-1.749 3.11-2.915 4.813-2.892.727 1.547.454 3.766-.704 5.515-1.203 1.883-2.792 2.108-4.155 1.906zm5.109 6.95c.022-1.256.454-2.668 2.338-3.52 1.794-.807 3.928-.74 5.245.135-.227 1.569-1.567 3.183-3.36 3.99-1.885.83-3.27.202-4.223-.605zM35.81 10.685c0-2.376 1.135-4.663 2.792-5.694 1.657 1.031 2.77 3.318 2.77 5.694 0 2.489-1.385 3.677-2.77 4.327-1.408-.65-2.793-1.838-2.793-4.327zM8.836 53.35c0 .045.023.09.09.09.046 0 .137-.045.25-.09 5.086-1.793 12.624-4.013 23.159-4.685.022-.09.068-.56.068-.92 0-.762-.091-1.546-.114-1.681-10.807.986-18.277 4.08-23.18 7.062-.182.112-.273.157-.273.224zm21.296-42.463c-.522-1.636-.227-3.453.681-4.506 1.363.358 2.634 1.704 3.134 3.34.544 1.704-.16 2.825-.977 3.565-1.09-.134-2.293-.672-2.838-2.399zM21.46 19.34c-1.271-1.077-1.975-2.668-1.793-3.991 1.294-.404 3.02.022 4.29 1.098 1.34 1.121 1.363 2.377 1.068 3.386-.976.448-2.225.628-3.565-.493zm.16 11.904c-1.635-.179-3.111-1.098-3.679-2.264.818-1.031 2.475-1.614 4.087-1.435 1.703.18 2.407 1.188 2.747 2.175-.545.874-1.453 1.704-3.156 1.524zm3.768 4.17c-1.43.27-2.929-.134-3.723-.964.431-1.076 1.657-2.017 3.088-2.286 1.498-.292 2.36.38 2.906 1.12-.227.898-.772 1.84-2.27 2.13zm7.515-14.348c-.613-1.973-.272-4.148.818-5.403 1.634.426 3.156 2.04 3.769 3.99.635 2.063-.182 3.386-1.181 4.283-1.317-.157-2.747-.808-3.406-2.87zm-4.359 4.506c-1.43-1.188-2.225-3.004-2.02-4.484 1.453-.448 3.382.045 4.813 1.233 1.498 1.256 1.52 2.668 1.203 3.812-1.09.493-2.497.695-3.996-.56zm-2.702-9.304c-1.158-1.749-1.43-3.99-.704-5.515 1.726-.023 3.678 1.12 4.814 2.892 1.203 1.838.772 3.385.045 4.529-1.34.157-2.929-.068-4.155-1.906zm-5.154 9.394c-1.793-.807-3.155-2.421-3.36-3.99 1.34-.875 3.451-.942 5.245-.135 1.884.852 2.316 2.264 2.338 3.52-.953.83-2.338 1.457-4.223.605z" fill="#56B948"/><path d="M129.282 46.087V32.41c0-1.838-.181-5.336-.227-6.143h4.291l.205 2.78h.09c.5-.784 2.112-3.228 5.858-3.228 4.518 0 7.038 3.273 7.038 7.376v12.87h-4.79V34.136c0-2.511-1.431-4.417-3.86-4.417-2.52 0-3.86 1.995-3.86 4.417v11.927h-4.745v.023zm-27.971-19.753h-4.79v19.753h4.79V26.334zm68.248 19.753c-.159-1.1-.613-4.014-.613-6.525V26.716c-.749-.18-3.474-.897-6.584-.897-8.105 0-11.602 5.358-11.602 11.165 0 5.336 2.725 9.529 7.924 9.529 3.814 0 5.517-2.444 6.153-3.722h.113c.046.605.227 2.713.273 3.296h4.336zm-5.381-9.798c0 4.529-1.793 6.412-4.382 6.412-2.611 0-4.086-2.197-4.086-6.03 0-3.924 2.293-7.175 6.493-7.175.863 0 1.476.09 1.998.202v6.591h-.023zm-72.426 4.955c-1.294.605-3.383 1.009-5.403 1.009-5.495 0-9.559-3.879-9.559-9.798 0-5.874 4.019-9.797 9.559-9.797 2.747 0 4.7.65 5.403.986v-4.237c-1.203-.449-3.156-.897-5.903-.897-8.537 0-14.28 5.83-14.28 13.923 0 7.667 5.29 13.922 14.28 13.922 2.634 0 4.61-.403 5.903-.874v-4.237zm27.586 2.466v1.48c0 4.035-2.52 5.605-5.654 5.605-2.815 0-4.881-.83-5.539-1.054v3.99c.545.135 2.815.853 6.062.853 5.789 0 9.649-2.355 9.649-10.426v-17.42c-.749-.18-3.451-.897-6.584-.897-8.106 0-11.602 5.359-11.602 11.165 0 5.336 2.724 9.529 7.924 9.529 3.428 0 5.085-2.04 5.63-2.803h.114v-.022zm-.25-7.421c0 4.529-1.794 6.412-4.405 6.412s-4.086-2.197-4.086-6.03c0-3.924 2.27-7.175 6.493-7.175.863 0 1.476.09 1.998.202v6.591zM95.953 21.155c0 1.592 1.316 2.87 2.974 2.87 1.634 0 2.951-1.278 2.951-2.87 0-1.591-1.317-2.87-2.951-2.87-1.635 0-2.975 1.301-2.975 2.87zm82.415 24.349a2.608 2.608 0 01-1.884.784c-.75 0-1.363-.269-1.885-.784a2.523 2.523 0 01-.772-1.861c0-.718.25-1.346.772-1.861.522-.516 1.135-.762 1.885-.762.726 0 1.362.246 1.884.762.522.516.772 1.12.772 1.86 0 .718-.25 1.346-.772 1.861zm-3.519-3.476c-.454.449-.659.965-.659 1.592 0 .628.227 1.166.659 1.614.454.449.976.673 1.612.673.636 0 1.18-.224 1.612-.672.454-.449.658-.987.658-1.615a2.17 2.17 0 00-.658-1.592 2.23 2.23 0 00-1.612-.672 2.427 2.427 0 00-1.612.672zm1.566.157c.364 0 .636.045.795.112.295.113.454.36.454.74 0 .27-.091.449-.295.56-.091.068-.25.113-.431.135.227.045.386.135.499.292a.72.72 0 01.159.448v.426c0 .067.023.135.023.157l.022.045h-.476v-.359c0-.336-.091-.56-.273-.65-.113-.067-.295-.09-.567-.09h-.409v1.144h-.522v-2.892h1.021v-.068zm.568.449c-.136-.068-.341-.112-.636-.112h-.431v1.053h.477c.227 0 .386-.022.499-.067.205-.09.295-.224.295-.448-.022-.202-.068-.359-.204-.426z" fill="#0982C6"/></svg>
